!!!!SEGMENT: pl-sa--251-a-vii-11--002_golabek-jakub--parthia-in-c-andante-moderato.krn
!!!cenid: 17xx:1762
!!!COM: Gołąbek, Jakub
!!!COM-rism: pe30008748
!!!CDT: 1739-1789/03/30
!!!CNT: Polish
!!!OTL: Parthia in C – Andante moderato
!!!PDT:
!!!AGN:
!!!SMS-siglum: PL-SA
!!!SMS-shelfmark: 251/A VII 11
!!!NIFC-rismID: 1001077273
!!!URL-scan: http://bc.bdsandomierz.pl/dlibra/publication/1776/edition/1744/content
!!!ONB-nifc: UWAGA: części Parthii: 1. Adagio, 2. Andante moderato, 3. Allegro molto
!!!SMS-variant:
!!!SMS-altvar:
**kern	**dynam	**kern	**dynam	**kern	**dynam	**kern	**kern	**dynam
*part5	*part5	*part4	*part4	*part3	*part3	*part2	*part1	*part1
*group	*group	*group2	*group2	*group2	*group2	*group1	*group1	*group1
*staff5	*	*staff4	*	*staff3	*	*staff2	*staff1	*
*I"Fagotto	*	*I"Cornu Secundo in C	*	*I"Cornu Primo in C	*	*I"Clarinetto Secundo	*I"Clarineto Primo	*
*I'fag	*	*I'cor 2	*	*I'cor 1	*	*I'cl 2	*I'cl 1	*
*clefF4	*	*clefG2	*	*clefG2	*	*clefG2	*clefG2	*
*	*	*Trd0c0	*	*Trd0c0	*	*	*	*
*k[]	*	*k[]	*	*k[]	*	*k[]	*k[]	*
*M3/4	*	*M3/4	*	*M3/4	*	*M3/4	*M3/4	*
=1	=1	=1	=1	=1	=1	=1	=1	=1
*	*	*	*	*	*	*	*2\right	*
!	!	!	!	!	!	!	!LO:TX:a:t=dolce	!
!LO:TX:a:t=Andante \nmoderato	!	!LO:TX:a:t=Andante \nmoderato	!LO:DY:a:t=p&colon;:rj	!LO:TX:a:t=Andante \nmoderato	!LO:DY:a:t=p&colon;:rj	!LO:TX:t=P:problem:brak partii	!LO:TX:a:t=Andante \nmoderato	!
!LO:TX:a:t=P:problem:napis "Andante moderato" w źródle przed kluczem na pięciolinii	!LO:DY:a	!	!	!	!	!	!LO:TX:a:t=P:problem:napis "Andante moderato" w źródle przed kluczem na pięciolinii	!
8C\L	p	2.e/	p	2.g/	p	2.ryy	2.cc\	.
8Em>\J	.	.	.	.	.	.	.	.
8G\L	.	.	.	.	.	.	.	.
8cM>\J	.	.	.	.	.	.	.	.
8e\L	.	.	.	.	.	.	.	.
8cM>\J	.	.	.	.	.	.	.	.
=2	=2	=2	=2	=2	=2	=2	=2	=2
8d\L	.	2.G/	.	2.g/	.	2.ryy	2.b\	.
8B\J	.	.	.	.	.	.	.	.
8G\L	.	.	.	.	.	.	.	.
8D\J	.	.	.	.	.	.	.	.
8BB/L	.	.	.	.	.	.	.	.
8GG/J	.	.	.	.	.	.	.	.
=3	=3	=3	=3	=3	=3	=3	=3	=3
8BB/L	.	2.G/	.	2.g/	.	2.ryy	8ff\L	.
8GG/J	.	.	.	.	.	.	8ff\	.
8BB/L	.	.	.	.	.	.	8ff\	.
8D/J	.	.	.	.	.	.	8ff\J	.
!LO:TX:t=P:problem:mixed beam	!	!	!	!	!	!	!	!
8G\L	.	.	.	.	.	.	8.ffM>\L	.
8GG/J	.	.	.	.	.	.	.	.
.	.	.	.	.	.	.	32ee\LL	.
.	.	.	.	.	.	.	32ff\JJJ	.
=4	=4	=4	=4	=4	=4	=4	=4	=4
4GG/	.	4r	.	4r	.	2.ryy	16ff\LL	.
.	.	.	.	.	.	.	16ee\	.
.	.	.	.	.	.	.	16aa\	.
.	.	.	.	.	.	.	16gg\JJ	.
4C/	.	4c/	.	4cc\	.	.	4gg\	.
4CC/	.	4c/	.	4c/	.	.	4r	.
=5	=5	=5	=5	=5	=5	=5	=5	=5
*2\right	*	*	*	*	*	*	*	*
!	!LO:DY:a	!	!	!	!	!	!	!LO:DY:a
4r	f	4r	.	4r	.	2.ryy	4cc\	p
!	!	!	!LO:DY:a:rj	!	!LO:DY:a:rj	!	!	!LO:HP:a
2E\	.	2c/	f	2c/	f	.	2b-X\	<
=6	=6	=6	=6	=6	=6	=6	=6	=6
!	!LO:DY:a:rj	!LO:N:vis=0	!	!LO:N:vis=0	!	!	!	!
8F\	p	1.r	.	1.r	.	2.ryy	16a\LL	.
.	.	.	.	.	.	.	16aa\	.
8r	.	.	.	.	.	.	(>16aa\	.
.	.	.	.	.	.	.	16gg\JJ)	.
8F\	.	.	.	.	.	.	16gg\LL	.
.	.	.	.	.	.	.	(>16ff\	.
8r	.	.	.	.	.	.	(>16ff\)	.
.	.	.	.	.	.	.	16ee\JJ)	.
8F\	.	.	.	.	.	.	16ee\LL	.
.	.	.	.	.	.	.	(>16dd\	.
8r	.	.	.	.	.	.	(>16dd\)	.
.	.	.	.	.	.	.	16cc#X\JJ)	.
=7	=7	=7	=7	=7	=7	=7	=7	=7
8F\	.	.	.	.	.	2.ryy	16dd\LL	.
!	!	!	!	!	!	!	!LO:SIC:v:s=16cc#	!
.	.	.	.	.	.	.	(>16cc\	.
8r	.	.	.	.	.	.	(>16ee\)	.
.	.	.	.	.	.	.	16dd\JJ)	.
!	!	!	!	!	!	!	!LO:LB:g=original	!
4r	.	.	.	.	.	.	16ff\LL	.
.	.	.	.	.	.	.	(>16ee\	.
.	.	.	.	.	.	.	(>16ff\)	.
.	.	.	.	.	.	.	16aa\JJ)	.
8c\L	.	.	.	.	.	.	16gg\LL	.
.	.	.	.	.	.	.	(>16ee\	.
8G\J	.	.	.	.	.	.	(>16ff\)	.
.	.	.	.	.	.	.	16dd\JJ)	.
=8	=8	=8	=8	=8	=8	=8	=8	=8
4C/	.	4c/	.	4cc\	.	2.ryy	4cc\	.
8.GG/L	.	8.g/L	.	8.g/L	.	.	8.g/L	.
16EE/Jk	.	16e/Jk	.	16e/Jk	.	.	16e/Jk	.
16GG/LL	.	8g/L	.	8g/L	.	.	16g/LL	.
16FF/	.	.	.	.	.	.	16f/	.
16EE/	.	8e/J	.	8e/J	.	.	16e/	.
16DD/JJ	.	.	.	.	.	.	16d/JJ	.
=9	=9	=9	=9	=9	=9	=9	=9	=9
4CC/	.	4c/	.	4c/	.	2.ryy	4c/	.
4GG/	.	4G/	.	4G/	.	.	4G/	.
4r	.	4r	.	4r	.	.	4r	.
!LO:LB:g=original	!	!	!	!	!	!	!	!
=10	=10	=10	=10	=10	=10	=10	=10	=10
!	!	!	!LO:DY:a:rj	!	!LO:DY:a:rj	!	!LO:TX:t=P:problem:mixed beam	!
8C/L	.	8e/	p	8g/	p	2.ryy	16cc\LL	.
.	.	.	.	.	.	.	16c/	.
8C/J	.	8r	.	8r	.	.	16e/	.
.	.	.	.	.	.	.	16g/JJ	.
*tremolo	*	*	*	*	*	*	*	*
8C/L	.	8e/	.	8g/	.	.	16cc\LL	.
.	.	.	.	.	.	.	16ee\	.
8C/	.	8r	.	8r	.	.	16gg\	.
.	.	.	.	.	.	.	16ccc\JJ	.
8C/	.	8e/	.	8g/	.	.	16gg\LL	.
.	.	.	.	.	.	.	16ee\	.
8C/J	.	8r	.	8r	.	.	16dd\	.
.	.	.	.	.	.	.	16cc\JJ	.
*Xtremolo	*	*	*	*	*	*	*	*
=11	=11	=11	=11	=11	=11	=11	=11	=11
!LO:TX:t=P:problem:mixed beam	!	!	!	!	!	!	!	!
16G\LL	.	8G/	.	8g/	.	2.ryy	8b\L	.
16GG/	.	.	.	.	.	.	.	.
16BB/	.	8r	.	8r	.	.	8b\J	.
16D/JJ	.	.	.	.	.	.	.	.
16G\LL	.	8G/	.	8g/	.	.	8b\L	.
16D\	.	.	.	.	.	.	.	.
16G\	.	8r	.	8r	.	.	8b\J	.
16B\JJ	.	.	.	.	.	.	.	.
16d\LL	.	8G/	.	8g/	.	.	8b\L	.
16B\	.	.	.	.	.	.	.	.
16A\	.	8r	.	8r	.	.	8b\J	.
16G\JJ	.	.	.	.	.	.	.	.
=12	=12	=12	=12	=12	=12	=12	=12	=12
!LO:TX:t=P:problem:mixed beam	!	!	!	!	!	!	!	!
8c\L	.	8e/L	.	8g/L	.	2.ryy	16cc\LL	.
.	.	.	.	.	.	.	16ee\	.
8C/J	.	8e/J	.	8g/J	.	.	16ee\	.
.	.	.	.	.	.	.	16gg\JJ	.
!LO:TX:t=P:problem:mixed beam	!	!	!	!	!	!	!	!
8c\L	.	4e/	.	4g/	.	.	16ee\LL	.
.	.	.	.	.	.	.	16gg\	.
8C/J	.	.	.	.	.	.	16ccc\	.
.	.	.	.	.	.	.	16bb\JJ	.
8F\L	.	4r	.	4r	.	.	16aa\LL	.
.	.	.	.	.	.	.	16gg\	.
8F#X\J	.	.	.	.	.	.	16ff\	.
.	.	.	.	.	.	.	16ee\JJ	.
!	!	!	!	!	!	!	!LO:LB:g=original	!
=13	=13	=13	=13	=13	=13	=13	=13	=13
!LO:SIC:v:s=4F#	!	!	!	!	!	!	!	!
4F\	.	4r	.	4r	.	2.ryy	4ee\	.
8G\L	.	4G/	.	4g/	.	.	4dd\	.
8D\J	.	.	.	.	.	.	.	.
8BB/L	.	4G/	.	4g/	.	.	4r	.
8GG/J	.	.	.	.	.	.	.	.
!	!	!	!	!LO:LB:g=original	!	!	!	!
=14	=14	=14	=14	=14	=14	=14	=14	=14
16GG/LL	.	4G/	.	4g/	.	2.ryy	4dd\	.
16BB/	.	.	.	.	.	.	.	.
16D/	.	.	.	.	.	.	.	.
16G/JJ	.	.	.	.	.	.	.	.
!LO:TX:t=P:problem:mixed beam	!	!	!	!	!	!	!	!
8GG/L	.	4r	.	4r	.	.	16gg\LL	.
.	.	.	.	.	.	.	16aa\	.
8G\J	.	.	.	.	.	.	16bb\	.
.	.	.	.	.	.	.	16aa\JJ	.
!LO:TX:t=P:problem:mixed beam	!	!	!	!	!	!	!	!
8GG/L	.	4r	.	4r	.	.	16gg\LL	.
.	.	.	.	.	.	.	16ff#X\	.
8G\J	.	.	.	.	.	.	16ee\	.
.	.	.	.	.	.	.	16dd\JJ	.
=15	=15	=15	=15	=15	=15	=15	=15	=15
16D\LL	.	4dd\	.	4dd\	.	2.ryy	8cc\L	.
16d\	.	.	.	.	.	.	.	.
16A\	.	.	.	.	.	.	8cc\J	.
16F#X\JJ	.	.	.	.	.	.	.	.
8D\L	.	4r	.	4r	.	.	8cc\L	.
8F#\	.	.	.	.	.	.	8cc\J	.
8D\	.	4r	.	4r	.	.	8cc\L	.
8F#\J	.	.	.	.	.	.	8cc\J	.
!	!	!LO:LB:g=original	!	!	!	!	!	!
=16	=16	=16	=16	=16	=16	=16	=16	=16
16G\LL	.	4g/	.	4dd\	.	2.ryy	8b\L	.
16G\	.	.	.	.	.	.	.	.
16F#X\	.	.	.	.	.	.	8ddM>\J	.
16G\JJ	.	.	.	.	.	.	.	.
!LO:TX:t=P:problem:mixed beam	!	!	!	!	!	!	!	!
16GG/LL	.	4r	.	4r	.	.	8gg\L	.
16G\	.	.	.	.	.	.	.	.
16G\	.	.	.	.	.	.	8bb\J	.
16G\JJ	.	.	.	.	.	.	.	.
!LO:TX:t=P:problem:mixed beam	!	!	!	!	!	!	!	!
16GG/LL	.	4r	.	4r	.	.	8gg\L	.
16G\	.	.	.	.	.	.	.	.
16G\	.	.	.	.	.	.	8bb\J	.
16G\JJ	.	.	.	.	.	.	.	.
=17	=17	=17	=17	=17	=17	=17	=17	=17
4r	.	4r	.	4r	.	2.ryy	16gg#X\LL	.
.	.	.	.	.	.	.	16aa\	.
.	.	.	.	.	.	.	16ccc\	.
.	.	.	.	.	.	.	16aa\JJ	.
4r	.	4r	.	4r	.	.	16gg#X\LL	.
.	.	.	.	.	.	.	16aa\	.
.	.	.	.	.	.	.	16ccc\	.
.	.	.	.	.	.	.	16aa\JJ	.
4D\	.	4dd\	.	4dd\	.	.	4aaM>\	.
=18	=18	=18	=18	=18	=18	=18	=18	=18
.	.	.	.	.	.	.	8qqaa/|	.
8G\L	.	4g/	.	4dd\	.	2.ryy	4gg\	.
8B\J	.	.	.	.	.	.	.	.
8G\L	.	4r	.	4r	.	.	8r	.
8B\J	.	.	.	.	.	.	8gg\	.
!LO:TX:t=P:problem:mixed beam	!	!	!	!	!	!	!	!
8d\L	.	4dd\	.	4dd\	.	.	16ff#X\LL	.
.	.	.	.	.	.	.	16aa\	.
8D/J	.	.	.	.	.	.	16ccc\	.
.	.	.	.	.	.	.	16aa\JJ	.
!LO:LB:g=original	!	!	!	!	!	!	!LO:LB:g=original	!
=19	=19	=19	=19	=19	=19	=19	=19	=19
.	.	.	.	.	.	.	8qqaa/	.
8G\L	.	4g/	.	4dd\	.	2.ryy	4gg\	.
8B\J	.	.	.	.	.	.	.	.
8G\L	.	4r	.	4r	.	.	8r	.
8B\J	.	.	.	.	.	.	8gg\	.
!LO:TX:t=P:problem:mixed beam	!	!	!	!	!	!	!	!
8d\L	.	4dd\	.	4dd\	.	.	16aa\LL	.
.	.	.	.	.	.	.	16ccc\	.
8D/J	.	.	.	.	.	.	16aa\	.
.	.	.	.	.	.	.	16ff#X\JJ	.
=20	=20	=20	=20	=20	=20	=20	=20	=20
*	*	*2\right	*	*2\right	*	*	*	*
!	!	!	!	!	!	!	!LO:SIC:v:s=2ff#	!
8D\L	.	2dd\	.	2dd\	.	2.ryy	2ff\	.
8G\J	.	.	.	.	.	.	.	.
8D/L	.	.	.	.	.	.	.	.
8BB/J	.	.	.	.	.	.	.	.
.	.	.	.	.	.	.	16qqgg/LL	.
.	.	.	.	.	.	.	16qqaa/JJ	.
8GG/	.	8g/	.	8dd\	.	.	8gg\	.
8r	.	8r	.	8r	.	.	8r	.
=21:|!|:	=21:|!|:	=21:|!|:	=21:|!|:	=21:|!|:	=21:|!|:	=21:|!|:	=21:|!|:	=21:|!|:
8GG/L	.	2.g/	.	2.g/	.	2.ryy	2.gg\	.
8BBm>/J	.	.	.	.	.	.	.	.
8D\L	.	.	.	.	.	.	.	.
8GM>\J	.	.	.	.	.	.	.	.
8B\L	.	.	.	.	.	.	.	.
8GM>\J	.	.	.	.	.	.	.	.
=22	=22	=22	=22	=22	=22	=22	=22	=22
8A\L	.	2.dd\	.	2.dd\	.	2.ryy	2.ff#X\	.
8F#Xm>\J	.	.	.	.	.	.	.	.
8D\L	.	.	.	.	.	.	.	.
8F#\	.	.	.	.	.	.	.	.
8A\	.	.	.	.	.	.	.	.
8F#\J	.	.	.	.	.	.	.	.
=23	=23	=23	=23	=23	=23	=23	=23	=23
8D\L	.	8dd\L	.	8dd\L	.	2.ryy	8ccc\L	.
!LO:SIC:v:s=8F#	!	!	!	!	!	!	!	!
8FM>\J	.	8dd\	.	8dd\	.	.	8ccc\	.
8A\L	.	8dd\	.	8dd\	.	.	8ccc\	.
!LO:SIC:v:s=8F#	!	!	!	!	!	!	!	!
8F\J	.	8dd\	.	8dd\	.	.	8ccc\J	.
8D\L	.	8dd\	.	8dd\	.	.	8.cccM>\L	.
!LO:SIC:v:s=8F#	!	!	!	!	!	!	!	!
8F\J	.	8dd\J	.	8dd\J	.	.	.	.
.	.	.	.	.	.	.	32bb\LL	.
.	.	.	.	.	.	.	32ccc\JJJ	.
=24	=24	=24	=24	=24	=24	=24	=24	=24
!LO:SIC:v:s=4F#	!	!	!	!	!	!	!	!
4F\	.	4dd\	.	4dd\	.	2.ryy	16ccc\LL	.
.	.	.	.	.	.	.	16bb\	.
.	.	.	.	.	.	.	16aa\	.
.	.	.	.	.	.	.	16gg\JJ	.
4G\	.	4g/	.	4dd\	.	.	4gg\	.
4r	.	4r	.	4r	.	.	4r	.
=25	=25	=25	=25	=25	=25	=25	=25	=25
.	.	.	.	.	.	.	16qqgg/LL	.
.	.	.	.	.	.	.	16qqaa/JJ	.
!	!	!LO:N:vis=00	!	!LO:N:vis=00	!	!	!	!
8C#X/L	.	0.r	.	0.r	.	2.ryy	4bb-X\	.
8E/J	.	.	.	.	.	.	.	.
4C#/	.	.	.	.	.	.	16bb-\LL	.
.	.	.	.	.	.	.	16aa\	.
.	.	.	.	.	.	.	16gg\	.
.	.	.	.	.	.	.	16aa\JJ	.
4r	.	.	.	.	.	.	16gg\LL	.
.	.	.	.	.	.	.	16ff\	.
.	.	.	.	.	.	.	16ee\	.
.	.	.	.	.	.	.	16ff\JJ	.
!	!	!	!	!	!	!	!LO:LB:g=original	!
=26	=26	=26	=26	=26	=26	=26	=26	=26
!LO:TX:t=P:problem:mixed beam	!	!	!	!	!	!	!	!
8AA/L	.	.	.	.	.	2.ryy	16ee\LL	.
.	.	.	.	.	.	.	16dd\	.
8A\J	.	.	.	.	.	.	16cc#X\	.
.	.	.	.	.	.	.	16dd\JJ	.
!LO:TX:t=P:problem:mixed beam	!	!	!	!	!	!	!	!
8AA/L	.	.	.	.	.	.	(>8.cc#\L	.
8A\J	.	.	.	.	.	.	.	.
.	.	.	.	.	.	.	16ee\Jk)	.
!LO:TX:t=P:problem:mixed beam	!	!	!	!	!	!	!	!
8AA/L	.	.	.	.	.	.	(>8.ee\L	.
8A\J	.	.	.	.	.	.	.	.
.	.	.	.	.	.	.	16gg\Jk)	.
=27	=27	=27	=27	=27	=27	=27	=27	=27
4C#X/	.	.	.	.	.	2.ryy	4bb-X\	.
!LO:TX:t=P:problem:mixed beam	!	!	!	!	!	!	!	!
8D/L	.	.	.	.	.	.	8aa\L	.
8d\J	.	.	.	.	.	.	16ccc#X\L	.
.	.	.	.	.	.	.	16ddd\JJ	.
!LO:TX:t=P:problem:mixed beam	!	!	!	!	!	!	!	!
8D/L	.	.	.	.	.	.	8aa\L	.
8d\J	.	.	.	.	.	.	8aa\J	.
!LO:LB:g=original	!	!	!	!	!	!	!	!
=28	=28	=28	=28	=28	=28	=28	=28	=28
8G\L	.	.	.	.	.	2.ryy	16gg\LL	.
.	.	.	.	.	.	.	16bb-X\	.
8G\J	.	.	.	.	.	.	16aa\	.
.	.	.	.	.	.	.	16gg\JJ	.
8A\L	.	.	.	.	.	.	4ff\	.
8A\J	.	.	.	.	.	.	.	.
8AA/L	.	.	.	.	.	.	4eem>\	.
8AA/J	.	.	.	.	.	.	.	.
=29	=29	=29	=29	=29	=29	=29	=29	=29
!	!	!LO:N:vis=0	!	!LO:N:vis=0	!	!	!	!
2AA/	.	1.r	.	1.r	.	2.ryy	2ee\	.
8D/	.	.	.	.	.	.	8dd\	.
8r	.	.	.	.	.	.	8r	.
=30	=30	=30	=30	=30	=30	=30	=30	=30
.	.	.	.	.	.	.	16qqff/LL	.
.	.	.	.	.	.	.	16qqgg/JJ	.
8BBn/L	.	.	.	.	.	2.ryy	4aa\	.
8D/J	.	.	.	.	.	.	.	.
4GG/	.	.	.	.	.	.	16aa\LL	.
.	.	.	.	.	.	.	16gg\	.
.	.	.	.	.	.	.	16ff\	.
.	.	.	.	.	.	.	16gg\JJ	.
4G\	.	.	.	.	.	.	16ff\LL	.
.	.	.	.	.	.	.	16ee\	.
.	.	.	.	.	.	.	16dd\	.
.	.	.	.	.	.	.	16ee\JJ	.
!	!	!	!	!LO:LB:g=original	!	!	!	!
=31	=31	=31	=31	=31	=31	=31	=31	=31
!LO:TX:t=P:problem:mixed beam	!	!	!	!	!	!	!	!
8GG/L	.	4r	.	4r	.	2.ryy	16dd\LL	.
.	.	.	.	.	.	.	16cc\	.
8G\J	.	.	.	.	.	.	16b\	.
.	.	.	.	.	.	.	16cc\JJ	.
!LO:TX:t=P:problem:mixed beam	!	!	!	!	!	!	!	!
8GG/L	.	4r	.	4r	.	.	8b\L	.
8G\J	.	.	.	.	.	.	8gM>\J	.
!	!	!	!	!	!	!	!LO:LB:g=original	!
!LO:TX:t=P:problem:mixed beam	!	!	!	!	!	!	!	!
8GG/L	.	4g/	.	4g/	.	.	8b\L	.
8G\J	.	.	.	.	.	.	8ddM>\J	.
=32	=32	=32	=32	=32	=32	=32	=32	=32
8GG/L	.	4g/	.	4g/	.	2.ryy	8.ff\L	.
8BB/J	.	.	.	.	.	.	.	.
.	.	.	.	.	.	.	16aa\Jk	.
8C\L	.	4c/	.	4e/	.	.	16gg\LL	.
.	.	.	.	.	.	.	16aa\	.
8E\J	.	.	.	.	.	.	16bb\	.
.	.	.	.	.	.	.	16ccc\JJ	.
8G\L	.	4e/	.	4g/	.	.	8gg\L	.
8c\J	.	.	.	.	.	.	8gg\J	.
=33	=33	=33	=33	=33	=33	=33	=33	=33
8E\L	.	4r	.	4r	.	2.ryy	16gg\LL	.
.	.	.	.	.	.	.	16ff\	.
8F\J	.	.	.	.	.	.	16aa\	.
.	.	.	.	.	.	.	16ff\JJ	.
4G\	.	4e/	.	4cc\	.	.	4ee\	.
4GG/	.	4g/	.	4dd\	.	.	4dd\	.
!	!	!LO:LB:g=original	!	!	!	!	!	!
=34	=34	=34	=34	=34	=34	=34	=34	=34
2GG/	.	2g/	.	2dd\	.	2.ryy	2dd\	.
8C/	.	8cc\	.	8ee\	.	.	8ee\	.
8r	.	8r	.	8r	.	.	16r	.
.	.	.	.	.	.	.	16gg\	.
=35	=35	=35	=35	=35	=35	=35	=35	=35
4C/	.	4c/	.	4cc\	.	2.ryy	8.gg\L	.
.	.	.	.	.	.	.	(>32ee\LL	.
.	.	.	.	.	.	.	32gg\JJJ)	.
4C/	.	4c/	.	4cc\	.	.	16ccc\LL	.
.	.	.	.	.	.	.	16bb\	.
.	.	.	.	.	.	.	16aa\	.
.	.	.	.	.	.	.	16gg\JJ	.
8BB/L	.	4r	.	4r	.	.	16aa\LL	.
.	.	.	.	.	.	.	16gg\	.
8C/J	.	.	.	.	.	.	16ff\	.
.	.	.	.	.	.	.	16ee\JJ	.
=36	=36	=36	=36	=36	=36	=36	=36	=36
4GG/	.	4e/	.	4cc\	.	2.ryy	4eem>\	.
8G\L	.	4g/	.	4dd\	.	.	4dd\	.
8F\	.	.	.	.	.	.	.	.
8E\	.	4r	.	4r	.	.	4r	.
8D\J	.	.	.	.	.	.	.	.
!LO:LB:g=original	!	!	!	!	!	!	!LO:LB:g=original	!
=37	=37	=37	=37	=37	=37	=37	=37	=37
!LO:TX:t=P:problem:mixed beam	!	!	!	!	!	!	!	!
8C/L	.	4c/	.	4e/	.	2.ryy	16cc\LL	.
.	.	.	.	.	.	.	16ccc\	.
8c\J	.	.	.	.	.	.	16gg\	.
.	.	.	.	.	.	.	16ee\JJ	.
8G\L	.	4r	.	4r	.	.	8cc\L	.
8c\J	.	.	.	.	.	.	8cc\	.
8E\L	.	4r	.	4r	.	.	8cc\	.
8C\J	.	.	.	.	.	.	8cc\J	.
=38	=38	=38	=38	=38	=38	=38	=38	=38
!LO:TX:t=P:problem:mixed beam	!	!	!	!	!	!	!	!
8GG/L	.	4G/	.	4g/	.	2.ryy	4dd\	.
8G\J	.	.	.	.	.	.	.	.
!LO:TX:t=P:problem:mixed beam	!	!	!	!	!	!	!	!
8GG/L	.	2G/	.	2g/	.	.	16dd\LL	.
.	.	.	.	.	.	.	16ee\	.
8G\J	.	.	.	.	.	.	16ff\	.
.	.	.	.	.	.	.	16ee\JJ	.
!LO:TX:t=P:problem:mixed beam	!	!	!	!	!	!	!	!
8GG/L	.	.	.	.	.	.	16gg\LL	.
.	.	.	.	.	.	.	16ff\	.
8G\J	.	.	.	.	.	.	16ee\	.
.	.	.	.	.	.	.	16dd\JJ	.
=39	=39	=39	=39	=39	=39	=39	=39	=39
8C/L	.	4e/	.	4cc\	.	2.ryy	16ee\LL	.
.	.	.	.	.	.	.	16gg\	.
8CC/J	.	.	.	.	.	.	16bb\	.
.	.	.	.	.	.	.	16ccc\JJ	.
8C/L	.	8c/L	.	8ee\L	.	.	(>8gg\L	.
8CC/J	.	8e/J	.	8cc\J	.	.	8ee\J)	.
8C/L	.	8c/L	.	8ee\L	.	.	(>8gg\L	.
8CC/J	.	8e/J	.	8cc\J	.	.	8ee\J)	.
=40	=40	=40	=40	=40	=40	=40	=40	=40
!LO:TX:t=P:problem:mixed beam	!	!	!	!	!	!	!	!
8GG/L	.	4g/	.	4dd\	.	2.ryy	4ff\	.
8G\J	.	.	.	.	.	.	.	.
!LO:TX:t=P:problem:mixed beam	!	!	!	!	!	!	!	!
8GG/L	.	4r	.	4r	.	.	16ff\LL	.
.	.	.	.	.	.	.	16gg\	.
8G\J	.	.	.	.	.	.	16aa\	.
.	.	.	.	.	.	.	16gg\JJ	.
!LO:TX:t=P:problem:mixed beam	!	!	!	!	!	!	!LO:SIC:v:s=16bb	!
8GG/L	.	4r	.	4r	.	.	16bb-X\LL	.
.	.	.	.	.	.	.	16aa\	.
8G\J	.	.	.	.	.	.	16gg\	.
.	.	.	.	.	.	.	16ff\JJ	.
=41	=41	=41	=41	=41	=41	=41	=41	=41
8C/L	.	8e/	.	8cc\	.	2.ryy	8ee\L	.
8BB/J	.	8r	.	8r	.	.	8ffM>\J	.
8C/L	.	8e/	.	8cc\	.	.	8ee\L	.
8BB/J	.	8r	.	8r	.	.	8ffM>\J	.
8C/L	.	8e/	.	8cc\	.	.	8gg\L	.
8C/J	.	8r	.	8r	.	.	8aaM>\J	.
!	!	!	!	!LO:LB:g=original	!	!	!LO:LB:g=original	!
=42	=42	=42	=42	=42	=42	=42	=42	=42
.	.	.	.	.	.	.	8qqccc/	.
4E\	.	2c/	.	2ee\	.	2.ryy	4bb-X\	.
4F\	.	.	.	.	.	.	4aa\	.
4r	.	4r	.	4r	.	.	8r	.
.	.	.	.	.	.	.	8aa\	.
=43	=43	=43	=43	=43	=43	=43	=43	=43
8C\L	.	8cc\L	.	8ee\L	.	2.ryy	16gg\LL	.
.	.	.	.	.	.	.	16ggM>\	.
8F\J	.	8dd\J	.	8ff\J	.	.	16aa\	.
.	.	.	.	.	.	.	16ff\JJ	.
8G\L	.	4cc\	.	4ee\	.	.	4ee\	.
8G\J	.	.	.	.	.	.	.	.
8GG/L	.	4g/	.	4dd\	.	.	16gg\LL	.
.	.	.	.	.	.	.	16ff\	.
8GG/J	.	.	.	.	.	.	16ee\	.
.	.	.	.	.	.	.	16dd\JJ	.
=44	=44	=44	=44	=44	=44	=44	=44	=44
4C/	.	4e/	.	4cc\	.	2.ryy	4cc\	.
4C/	.	4r	.	4r	.	.	8r	.
.	.	.	.	.	.	.	8cc\	.
4GG/	.	4g/	.	4dd\	.	.	16b\LL	.
.	.	.	.	.	.	.	16dd\	.
.	.	.	.	.	.	.	16ff\	.
.	.	.	.	.	.	.	16dd\JJ	.
!LO:LB:g=original	!	!	!	!	!	!	!	!
=45	=45	=45	=45	=45	=45	=45	=45	=45
!LO:TX:t=P:problem:nadmiarowy takt w rogach	!	!	!	!	!	!	!LO:TX:t=P:problem:nadmiarowy takt w rogach	!
2.ryy	.	4e/	.	4cc\	.	2.ryy	2.ryy	.
.	.	4r	.	4r	.	.	.	.
.	.	4g/	.	4dd\	.	.	.	.
!	!	!LO:LB:g=original	!	!	!	!	!	!
=46	=46	=46	=46	=46	=46	=46	=46	=46
4C/	.	4e/	.	4cc\	.	2.ryy	4cc\	.
4C/	.	4r	.	4r	.	.	8r	.
.	.	.	.	.	.	.	8cc\	.
4GG/	.	4g/	.	8r	.	.	16b\LL	.
.	.	.	.	.	.	.	16dd\	.
.	.	.	.	8dd\	.	.	16ff\	.
.	.	.	.	.	.	.	16dd\JJ	.
=47	=47	=47	=47	=47	=47	=47	=47	=47
8C/	.	8e/	.	8cc\	.	2.ryy	8cc\	.
8r	.	8r	.	8r	.	.	8r	.
8C/	.	8e/	.	8g/	.	.	8cc\	.
8r	.	8r	.	8r	.	.	8r	.
8C/	.	8e/	.	8g/	.	.	8cc\	.
8r	.	8r	.	8r	.	.	8r	.
=48	=48	=48	=48	=48	=48	=48	=48	=48
4C/	.	4e/	.	4g/	.	2.ryy	4cc\	.
4r	.	4r	.	4r	.	.	4r	.
4r	.	4r	.	4r	.	.	4r	.
=:|!	=:|!	=:|!	=:|!	=:|!	=:|!	=:|!	=:|!	=:|!
*-	*-	*-	*-	*-	*-	*-	*-	*-
!!!system-decoration: [g1][g2][s5]
!!!RDF**kern: > = above
!!!RDF**kern: < = below
!!!RDF**dynam: < = "cres"
!!!EED: Mateusz Mrugas
!!!EST: 2021-01-19
!!!ENC:Andrzej Borzym
!!!END:2021-01-03
!!!RDF**kern: | = vertical stroke
